; generated by Slic3r 1.2.9 on 2017-03-11 at 20:09:07

; external perimeters extrusion width = 0.40mm
; perimeters extrusion width = 0.67mm
; infill extrusion width = 0.67mm
; solid infill extrusion width = 0.67mm
; top infill extrusion width = 0.67mm

M104 S225 ; set temperature
M80 ; Power supply on
G28 ; home all axes
G1 Z5 F5000; lift nozzle


M109 S225 ; wait for temperature to be reached
G21 ; set units to millimeters
G90 ; use absolute coordinates
M82 ; use absolute distances for extrusion
G92 E0 ; reset extrusion distance
;LAYER:
G1 E-1.00000 F480.00000 ; retract
G92 E0 ; reset extrusion distance
G1 Z0.200 F3600.000 ; move to next layer (0)
G1 X176.476 Y110.297 F3600.000 ; move to first skirt point
G1 E1.00000 F480.00000 ; unretract
G1 X178.079 Y108.481 E1.07192 F2100.000 ; skirt
G1 X180.151 Y107.330 E1.14229 ; skirt
G1 X182.500 Y106.929 E1.21306 ; skirt
G1 X277.500 Y106.929 E4.03373 ; skirt
G1 X279.837 Y107.326 E4.10410 ; skirt
G1 X281.911 Y108.473 E4.17447 F2100.000 ; skirt
G1 X283.496 Y110.252 E4.24524 ; skirt
G1 X288.496 Y118.252 E4.52535 ; skirt
G1 X289.398 Y120.444 E4.59572 ; skirt
G1 X289.571 Y122.000 E4.64220 ; skirt
G1 X289.571 Y142.000 E5.23603 ; skirt
G1 X289.517 Y142.877 E5.26212 ; skirt
G1 X284.517 Y182.877 E6.45901 ; skirt
G1 X283.833 Y185.146 E6.52938 ; skirt
G1 X282.437 Y187.062 E6.59975 ; skirt
G1 X279.736 Y188.708 E6.69368 ; skirt
G1 X270.736 Y191.708 E6.97535 ; skirt
G1 X268.594 Y192.071 E7.03985 ; skirt
G1 X193.594 Y193.071 E9.26690 ; skirt
G1 X185.500 Y193.071 E9.50723 ; skirt
G1 X183.163 Y192.674 E9.57759 ; skirt
G1 X181.089 Y191.527 E9.64796 ; skirt
G1 X179.511 Y189.759 E9.71833 ; skirt
G1 X178.792 Y188.236 E9.76835 ; skirt
G1 X175.792 Y179.236 E10.05002 ; skirt
G1 X175.500 Y178.000 E10.08773 ; skirt
G1 X170.500 Y143.000 E11.13748 ; skirt
G1 X170.429 Y142.000 E11.16725 ; skirt
G1 X170.429 Y122.000 E11.76107 ; skirt
G1 X170.826 Y119.663 E11.83144 ; skirt
G1 X171.504 Y118.252 E11.87792 ; skirt
G1 X176.444 Y110.348 E12.15468 ; skirt
G1 X176.747 Y110.537 F3600.000 ; move to first skirt point
G1 X176.806 Y110.442 E12.15803 F2100.000 ; skirt
G1 X178.349 Y108.723 E12.22659 ; skirt
G1 X180.382 Y107.629 E12.29514 ; skirt
G1 X182.500 Y107.286 E12.35886 ; skirt
G1 X277.500 Y107.286 E15.17953 ; skirt
G1 X279.775 Y107.683 E15.24808 ; skirt
G1 X281.780 Y108.827 E15.31664 F2100.000 ; skirt
G1 X283.194 Y110.442 E15.38035 ; skirt
G1 X288.194 Y118.442 E15.66046 ; skirt
G1 X289.062 Y120.581 E15.72902 ; skirt
G1 X289.214 Y122.000 E15.77140 ; skirt
G1 X289.214 Y142.000 E16.36522 ; skirt
G1 X289.162 Y142.833 E16.39000 ; skirt
G1 X284.162 Y182.833 E17.58689 ; skirt
G1 X283.486 Y185.041 E17.65545 ; skirt
G1 X282.102 Y186.889 E17.72400 ; skirt
G1 X279.623 Y188.370 E17.80974 ; skirt
G1 X270.623 Y191.370 E18.09142 ; skirt
G1 X268.590 Y191.714 E18.15266 ; skirt
G1 X193.590 Y192.714 E20.37970 ; skirt
G1 X185.500 Y192.714 E20.61989 ; skirt
G1 X183.225 Y192.317 E20.68845 ; skirt
G1 X181.220 Y191.173 E20.75700 ; skirt
G1 X179.720 Y189.417 E20.82556 ; skirt
G1 X179.130 Y188.123 E20.86778 ; skirt
G1 X176.130 Y179.123 E21.14946 ; skirt
G1 X175.853 Y177.950 E21.18527 ; skirt
G1 X170.853 Y142.950 E22.23501 ; skirt
G1 X170.786 Y142.000 E22.26328 ; skirt
G1 X170.786 Y122.000 E22.85710 ; skirt
G1 X171.183 Y119.725 E22.92566 ; skirt
G1 X171.806 Y118.442 E22.96804 ; skirt
G1 X176.715 Y110.588 E23.24301 ; skirt
G1 X177.018 Y110.777 F3600.000 ; move to first skirt point
G1 X177.109 Y110.631 E23.24814 F2100.000 ; skirt
G1 X178.618 Y108.966 E23.31484 ; skirt
G1 X180.611 Y107.930 E23.38153 ; skirt
G1 X182.500 Y107.643 E23.43828 ; skirt
G1 X277.500 Y107.643 E26.25895 ; skirt
G1 X279.711 Y108.040 E26.32564 ; skirt
G1 X281.646 Y109.181 E26.39234 F2100.000 ; skirt
G1 X282.891 Y110.631 E26.44908 ; skirt
G1 X287.891 Y118.631 E26.72919 ; skirt
G1 X288.726 Y120.716 E26.79588 ; skirt
G1 X288.857 Y122.000 E26.83421 ; skirt
G1 X288.857 Y142.000 E27.42803 ; skirt
G1 X288.808 Y142.788 E27.45149 ; skirt
G1 X283.808 Y182.788 E28.64838 ; skirt
G1 X283.140 Y184.933 E28.71508 ; skirt
G1 X281.768 Y186.712 E28.78177 ; skirt
G1 X279.510 Y188.031 E28.85941 ; skirt
G1 X270.510 Y191.031 E29.14108 ; skirt
G1 X268.585 Y191.357 E29.19907 ; skirt
G1 X193.585 Y192.357 E31.42611 ; skirt
G1 X185.500 Y192.357 E31.66616 ; skirt
G1 X183.289 Y191.960 E31.73285 ; skirt
G1 X181.354 Y190.819 E31.79955 ; skirt
G1 X179.937 Y189.077 E31.86624 ; skirt
G1 X179.469 Y188.010 E31.90081 ; skirt
G1 X176.469 Y179.010 E32.18249 ; skirt
G1 X176.207 Y177.899 E32.21639 ; skirt
G1 X171.207 Y142.899 E33.26613 ; skirt
G1 X171.143 Y142.000 E33.29290 ; skirt
G1 X171.143 Y122.000 E33.88672 ; skirt
G1 X171.540 Y119.789 E33.95342 ; skirt
G1 X172.109 Y118.631 E33.99174 ; skirt
G1 X176.986 Y110.828 E34.26493 ; skirt
G1 E33.26493 F480.00000 ; retract
G92 E0 ; reset extrusion distance
G1 X190.914 Y165.877 F3600.000 ; move to first perimeter point
G1 E1.00000 F480.00000 ; unretract
G1 X190.914 Y157.914 E1.23643 F900.000 ; perimeter
G1 X194.086 Y157.914 E1.33060 ; perimeter
G1 X194.086 Y176.086 E1.87014 ; perimeter
G1 X190.914 Y176.086 E1.96431 F900.000 ; perimeter
G1 X190.914 Y165.937 E2.26564 ; perimeter
G1 X190.557 Y165.937 F3600.000 ; move to first perimeter point
G1 X190.557 Y157.557 E2.51445 F900.000 ; perimeter
G1 X194.443 Y157.557 E2.62983 ; perimeter
G1 X194.443 Y176.443 E3.19057 ; perimeter
G1 X192.943 Y176.443 E3.23511 F900.000 ; perimeter
G1 X192.943 Y185.443 E3.50233 ; perimeter
G1 X192.057 Y185.443 E3.52863 ; perimeter
G1 X192.057 Y176.443 E3.79585 ; perimeter
G1 X190.557 Y176.443 E3.84039 ; perimeter
G1 X190.557 Y165.997 E4.15055 ; perimeter
G1 X190.200 Y165.997 F3600.000 ; move to first perimeter point
G1 X190.200 Y157.200 E4.41174 F450.000 ; perimeter
G1 X194.800 Y157.200 E4.54832 ; perimeter
G1 X194.800 Y176.800 E5.13027 ; perimeter
G1 X193.300 Y176.800 E5.17481 F450.000 ; perimeter
G1 X193.300 Y185.800 E5.44203 ; perimeter
G1 X185.700 Y185.800 E5.66768 ; perimeter
G1 X185.700 Y185.200 E5.68550 ; perimeter
G1 X191.700 Y185.200 E5.86364 ; perimeter
G1 X191.700 Y176.800 E6.11305 ; perimeter
G1 X190.200 Y176.800 E6.15759 ; perimeter
G1 X190.200 Y166.057 E6.47656 ; perimeter
G1 X190.546 Y165.797 F3600.000 ; move inwards before travel
G1 X193.878 Y158.313 F3600.000 ; move to first infill point
G1 X193.687 Y158.122 E6.48478 F900.000 ; infill
G1 X193.170 Y158.122 E6.50044 ; infill
G1 X193.878 Y158.830 E6.53081 ; infill
G1 X193.878 Y159.346 E6.54648 ; infill
G1 X192.654 Y158.122 E6.59900 ; infill
G1 X192.138 Y158.122 E6.61466 ; infill
G1 X193.878 Y159.862 E6.68933 ; infill
G1 X193.878 Y160.378 E6.70500 ; infill
G1 X191.622 Y158.122 E6.80182 ; infill
G1 X191.134 Y158.150 E6.81666 ; infill
G1 X193.878 Y160.894 E6.93443 ; infill
G1 X193.878 Y161.410 E6.95009 ; infill
G1 X191.122 Y158.654 E7.06838 ; infill
G1 X191.122 Y159.170 E7.08404 ; infill
G1 X193.878 Y161.926 E7.20233 ; infill
G1 X193.878 Y162.443 E7.21800 ; infill
G1 X191.122 Y159.686 E7.33628 ; infill
G1 X191.122 Y160.202 E7.35195 ; infill
G1 X193.878 Y162.959 E7.47023 ; infill
G1 X193.878 Y163.475 E7.48590 ; infill
G1 X191.122 Y160.719 E7.60419 ; infill
G1 X191.122 Y161.235 E7.61985 ; infill
G1 X193.878 Y163.991 E7.73814 ; infill
G1 X193.878 Y164.507 E7.75380 ; infill
G1 X191.122 Y161.751 E7.87209 ; infill
G1 X191.122 Y162.267 E7.88775 ; infill
G1 X193.878 Y165.023 E8.00604 ; infill
G1 X193.878 Y165.539 E8.02170 ; infill
G1 X191.122 Y162.783 E8.13999 ; infill
G1 X191.122 Y163.299 E8.15565 ; infill
G1 X193.878 Y166.055 E8.27394 ; infill
G1 X193.878 Y166.572 E8.28960 ; infill
G1 X191.122 Y163.815 E8.40789 ; infill
G1 X191.122 Y164.332 E8.42355 ; infill
G1 X193.878 Y167.088 E8.54184 ; infill
G1 X193.878 Y167.604 E8.55750 ; infill
G1 X191.122 Y164.848 E8.67579 ; infill
G1 X191.122 Y165.364 E8.69146 ; infill
G1 X193.878 Y168.120 E8.80974 ; infill
G1 X193.878 Y168.636 E8.82541 ; infill
G1 X191.122 Y165.880 E8.94369 ; infill
G1 X191.122 Y166.396 E8.95936 ; infill
G1 X193.878 Y169.152 E9.07765 ; infill
G1 X193.878 Y169.668 E9.09331 ; infill
G1 X191.122 Y166.912 E9.21160 ; infill
G1 X191.122 Y167.428 E9.22726 ; infill
G1 X193.878 Y170.185 E9.34555 ; infill
G1 X193.878 Y170.701 E9.36121 ; infill
G1 X191.122 Y167.945 E9.47950 ; infill
G1 X191.122 Y168.461 E9.49516 ; infill
G1 X193.878 Y171.217 E9.61345 ; infill
G1 X193.878 Y171.733 E9.62911 ; infill
G1 X191.122 Y168.977 E9.74740 ; infill
G1 X191.122 Y169.493 E9.76306 ; infill
G1 X193.878 Y172.249 E9.88135 ; infill
G1 X193.878 Y172.765 E9.89701 ; infill
G1 X191.122 Y170.009 E10.01530 ; infill
G1 X191.122 Y170.525 E10.03097 ; infill
G1 X193.878 Y173.281 E10.14925 ; infill
G1 X193.878 Y173.798 E10.16492 ; infill
G1 X191.122 Y171.041 E10.28320 ; infill
G1 X191.122 Y171.558 E10.29887 ; infill
G1 X193.878 Y174.314 E10.41715 ; infill
G1 X193.878 Y174.830 E10.43282 ; infill
G1 X191.122 Y172.074 E10.55111 ; infill
G1 X191.122 Y172.590 E10.56677 ; infill
G1 X193.878 Y175.346 E10.68506 ; infill
G1 X193.866 Y175.850 E10.70036 ; infill
G1 X191.122 Y173.106 E10.81813 ; infill
G1 X191.122 Y173.622 E10.83379 ; infill
G1 X193.378 Y175.878 E10.93062 ; infill
G1 X192.862 Y175.878 E10.94628 ; infill
G1 X191.122 Y174.138 E11.02095 ; infill
G1 X191.122 Y174.654 E11.03661 ; infill
G1 X192.346 Y175.878 E11.08913 ; infill
G1 X191.830 Y175.878 E11.10480 ; infill
G1 X191.122 Y175.170 E11.13516 ; infill
G1 X191.122 Y175.687 E11.15083 ; infill
G1 X191.313 Y175.878 E11.15904 ; infill
G1 X192.500 Y176.264 F3600.000 ; move to first infill point
G1 X192.500 Y185.264 E11.72561 F600.000 ; infill
G1 X191.879 Y185.500 F3600.000 ; move to first infill point
G1 X185.879 Y185.500 E12.10331 F600.000 ; infill
G1 E11.10331 F480.00000 ; retract
G92 E0 ; reset extrusion distance
G1 X183.414 Y168.065 F3600.000 ; move to first perimeter point
G1 E1.00000 F480.00000 ; unretract
G1 X183.414 Y157.914 E1.30138 F900.000 ; perimeter
G1 X186.586 Y157.914 E1.39555 ; perimeter
G1 X186.586 Y176.086 E1.93509 ; perimeter
G1 X183.414 Y176.086 E2.02926 F900.000 ; perimeter
G1 X183.414 Y168.125 E2.26564 ; perimeter
G1 X183.057 Y168.125 F3600.000 ; move to first perimeter point
G1 X183.057 Y157.557 E2.57941 F900.000 ; perimeter
G1 X186.943 Y157.557 E2.69478 ; perimeter
G1 X186.943 Y176.443 E3.25553 ; perimeter
G1 X183.057 Y176.443 E3.37090 F900.000 ; perimeter
G1 X183.057 Y168.185 E3.61610 ; perimeter
G1 X182.700 Y168.185 F3600.000 ; move to first perimeter point
G1 X182.700 Y157.200 E3.94225 F450.000 ; perimeter
G1 X187.300 Y157.200 E4.07883 ; perimeter
G1 X187.300 Y176.800 E4.66078 ; perimeter
G1 X182.700 Y176.800 E4.79736 F450.000 ; perimeter
G1 X182.700 Y168.245 E5.05138 ; perimeter
G1 X183.046 Y167.985 F3600.000 ; move inwards before travel
G1 X183.813 Y175.878 F3600.000 ; move to first infill point
G1 X183.622 Y175.687 E5.05960 F900.000 ; infill
G1 X183.622 Y175.170 E5.07526 ; infill
G1 X184.330 Y175.878 E5.10563 ; infill
G1 X184.846 Y175.878 E5.12129 ; infill
G1 X183.622 Y174.654 E5.17381 ; infill
G1 X183.622 Y174.138 E5.18947 ; infill
G1 X185.362 Y175.878 E5.26415 ; infill
G1 X185.878 Y175.878 E5.27981 ; infill
G1 X183.622 Y173.622 E5.37663 ; infill
G1 X183.622 Y173.106 E5.39229 ; infill
G1 X186.366 Y175.850 E5.51007 ; infill
G1 X186.378 Y175.346 E5.52537 ; infill
G1 X183.622 Y172.590 E5.64366 ; infill
G1 X183.622 Y172.074 E5.65932 ; infill
G1 X186.378 Y174.830 E5.77761 ; infill
G1 X186.378 Y174.314 E5.79327 ; infill
G1 X183.622 Y171.558 E5.91156 ; infill
G1 X183.622 Y171.041 E5.92722 ; infill
G1 X186.378 Y173.798 E6.04551 ; infill
G1 X186.378 Y173.281 E6.06117 ; infill
G1 X183.622 Y170.525 E6.17946 ; infill
G1 X183.622 Y170.009 E6.19512 ; infill
G1 X186.378 Y172.765 E6.31341 ; infill
G1 X186.378 Y172.249 E6.32907 ; infill
G1 X183.622 Y169.493 E6.44736 ; infill
G1 X183.622 Y168.977 E6.46302 ; infill
G1 X186.378 Y171.733 E6.58131 ; infill
G1 X186.378 Y171.217 E6.59698 ; infill
G1 X183.622 Y168.461 E6.71526 ; infill
G1 X183.622 Y167.945 E6.73093 ; infill
G1 X186.378 Y170.701 E6.84921 ; infill
G1 X186.378 Y170.185 E6.86488 ; infill
G1 X183.622 Y167.428 E6.98317 ; infill
G1 X183.622 Y166.912 E6.99883 ; infill
G1 X186.378 Y169.668 E7.11712 ; infill
G1 X186.378 Y169.152 E7.13278 ; infill
G1 X183.622 Y166.396 E7.25107 ; infill
G1 X183.622 Y165.880 E7.26673 ; infill
G1 X186.378 Y168.636 E7.38502 ; infill
G1 X186.378 Y168.120 E7.40068 ; infill
G1 X183.622 Y165.364 E7.51897 ; infill
G1 X183.622 Y164.848 E7.53463 ; infill
G1 X186.378 Y167.604 E7.65292 ; infill
G1 X186.378 Y167.088 E7.66858 ; infill
G1 X183.622 Y164.332 E7.78687 ; infill
G1 X183.622 Y163.815 E7.80253 ; infill
G1 X186.378 Y166.572 E7.92082 ; infill
G1 X186.378 Y166.055 E7.93649 ; infill
G1 X183.622 Y163.299 E8.05477 ; infill
G1 X183.622 Y162.783 E8.07044 ; infill
G1 X186.378 Y165.539 E8.18872 ; infill
G1 X186.378 Y165.023 E8.20439 ; infill
G1 X183.622 Y162.267 E8.32267 ; infill
G1 X183.622 Y161.751 E8.33834 ; infill
G1 X186.378 Y164.507 E8.45663 ; infill
G1 X186.378 Y163.991 E8.47229 ; infill
G1 X183.622 Y161.235 E8.59058 ; infill
G1 X183.622 Y160.719 E8.60624 ; infill
G1 X186.378 Y163.475 E8.72453 ; infill
G1 X186.378 Y162.959 E8.74019 ; infill
G1 X183.622 Y160.202 E8.85848 ; infill
G1 X183.622 Y159.686 E8.87414 ; infill
G1 X186.378 Y162.443 E8.99243 ; infill
G1 X186.378 Y161.926 E9.00809 ; infill
G1 X183.622 Y159.170 E9.12638 ; infill
G1 X183.622 Y158.654 E9.14204 ; infill
G1 X186.378 Y161.410 E9.26033 ; infill
G1 X186.378 Y160.894 E9.27599 ; infill
G1 X183.634 Y158.150 E9.39377 ; infill
G1 X184.122 Y158.122 E9.40860 ; infill
G1 X186.378 Y160.378 E9.50543 ; infill
G1 X186.378 Y159.862 E9.52109 ; infill
G1 X184.638 Y158.122 E9.59576 ; infill
G1 X185.154 Y158.122 E9.61143 ; infill
G1 X186.378 Y159.346 E9.66395 ; infill
G1 X186.378 Y158.830 E9.67961 ; infill
G1 X185.670 Y158.122 E9.70998 ; infill
G1 X186.187 Y158.122 E9.72564 ; infill
G1 X186.378 Y158.313 E9.73386 ; infill
G1 E8.73386 F480.00000 ; retract
G92 E0 ; reset extrusion distance
G1 X201.586 Y165.597 F3600.000 ; move to first perimeter point
G1 E1.00000 F480.00000 ; unretract
G1 X201.586 Y176.086 E1.31141 F900.000 ; perimeter
G1 X198.414 Y176.086 E1.40558 F900.000 ; perimeter
G1 X198.414 Y157.914 E1.94513 ; perimeter
G1 X201.586 Y157.914 E2.03930 ; perimeter
G1 X201.586 Y165.537 E2.26564 ; perimeter
G1 X201.943 Y165.537 F3600.000 ; move to first perimeter point
G1 X201.943 Y176.443 E2.58944 F900.000 ; perimeter
G1 X198.057 Y176.443 E2.70482 F900.000 ; perimeter
G1 X198.057 Y157.557 E3.26556 ; perimeter
G1 X201.943 Y157.557 E3.38094 ; perimeter
G1 X201.943 Y165.477 E3.61610 ; perimeter
G1 X202.300 Y165.477 F3600.000 ; move to first perimeter point
G1 X202.300 Y176.800 E3.95228 F450.000 ; perimeter
G1 X197.700 Y176.800 E4.08886 F450.000 ; perimeter
G1 X197.700 Y157.200 E4.67081 ; perimeter
G1 X202.300 Y157.200 E4.80739 ; perimeter
G1 X202.300 Y165.417 E5.05138 ; perimeter
G1 X201.954 Y165.677 F3600.000 ; move inwards before travel
G1 X201.378 Y158.313 F3600.000 ; move to first infill point
G1 X201.187 Y158.122 E5.05960 F900.000 ; infill
G1 X200.670 Y158.122 E5.07526 ; infill
G1 X201.378 Y158.830 E5.10563 ; infill
G1 X201.378 Y159.346 E5.12130 ; infill
G1 X200.154 Y158.122 E5.17382 ; infill
G1 X199.638 Y158.122 E5.18948 ; infill
G1 X201.378 Y159.862 E5.26415 ; infill
G1 X201.378 Y160.378 E5.27981 ; infill
G1 X199.122 Y158.122 E5.37664 ; infill
G1 X198.634 Y158.150 E5.39148 ; infill
G1 X201.378 Y160.894 E5.50925 ; infill
G1 X201.378 Y161.410 E5.52491 ; infill
G1 X198.622 Y158.654 E5.64320 ; infill
G1 X198.622 Y159.170 E5.65886 ; infill
G1 X201.378 Y161.926 E5.77715 ; infill
G1 X201.378 Y162.443 E5.79281 ; infill
G1 X198.622 Y159.686 E5.91110 ; infill
G1 X198.622 Y160.202 E5.92676 ; infill
G1 X201.378 Y162.959 E6.04505 ; infill
