; generated by Slic3r 1.2.9 on 2017-03-11 at 20:09:07
; external perimeters extrusion width = 0.40mm
; perimeters extrusion width = 0.67mm
; infill extrusion width = 0.67mm
; solid infill extrusion width = 0.67mm
; top infill extrusion width = 0.67mm
M104 S225 ; set temperature
M80 ; Power supply on
G28 ; home all axes
G1 Z5 F5000 ; lift nozzle
M109 S225 ; wait for temperature to be reached
G21 ; set units to millimeters
G90 ; use absolute coordinates
M82 ; use absolute distances for extrusion
G92 E0 ; reset extrusion distance
;LAYER:0
G1 E-1.0 F480.0 ; retract
G92 E0 ; reset extrusion distance
G1 Z0.2 F3600.0 ; move to next layer (0)
G1 Y110.297 X176.476 F3600.0 ; move to first skirt point
G1 E1.0 F480.0 ; unretract
G1 Y108.481 X178.079 E1.07192 F2100.0 ; skirt
G1 Y107.33 X180.151 E1.14229 ; skirt
G1 Y106.929 X182.5 E1.21306 ; skirt
G1 Y106.929 X277.5 E4.03373 ; skirt
G1 Y107.326 X279.837 E4.1041 ; skirt
G1 Y108.473 X281.911 E4.17447 F2100.0 ; skirt
G1 Y110.252 X283.496 E4.24524 ; skirt
G1 Y118.252 X288.496 E4.52535 ; skirt
G1 Y120.444 X289.398 E4.59572 ; skirt
G1 Y122.0 X289.571 E4.6422 ; skirt
G1 Y142.0 X289.571 E5.23603 ; skirt
G1 Y142.877 X289.517 E5.26212 ; skirt
G1 Y182.877 X284.517 E6.45901 ; skirt
G1 Y185.146 X283.833 E6.52938 ; skirt
G1 Y187.062 X282.437 E6.59975 ; skirt
G1 Y188.708 X279.736 E6.69368 ; skirt
G1 Y191.708 X270.736 E6.97535 ; skirt
G1 Y192.071 X268.594 E7.03985 ; skirt
G1 Y193.071 X193.594 E9.2669 ; skirt
G1 Y193.071 X185.5 E9.50723 ; skirt
G1 Y192.674 X183.163 E9.57759 ; skirt
G1 Y191.527 X181.089 E9.64796 ; skirt
G1 Y189.759 X179.511 E9.71833 ; skirt
G1 Y188.236 X178.792 E9.76835 ; skirt
G1 Y179.236 X175.792 E10.05002 ; skirt
G1 Y178.0 X175.5 E10.08773 ; skirt
G1 Y143.0 X170.5 E11.13748 ; skirt
G1 Y142.0 X170.429 E11.16725 ; skirt
G1 Y122.0 X170.429 E11.76107 ; skirt
G1 Y119.663 X170.826 E11.83144 ; skirt
G1 Y118.252 X171.504 E11.87792 ; skirt
G1 Y110.348 X176.444 E12.15468 ; skirt
G1 Y110.537 X176.747 F3600.0 ; move to first skirt point
G1 Y110.442 X176.806 E12.15803 F2100.0 ; skirt
G1 Y108.723 X178.349 E12.22659 ; skirt
G1 Y107.629 X180.382 E12.29514 ; skirt
G1 Y107.286 X182.5 E12.35886 ; skirt
G1 Y107.286 X277.5 E15.17953 ; skirt
G1 Y107.683 X279.775 E15.24808 ; skirt
G1 Y108.827 X281.78 E15.31664 F2100.0 ; skirt
G1 Y110.442 X283.194 E15.38035 ; skirt
G1 Y118.442 X288.194 E15.66046 ; skirt
G1 Y120.581 X289.062 E15.72902 ; skirt
G1 Y122.0 X289.214 E15.7714 ; skirt
G1 Y142.0 X289.214 E16.36522 ; skirt
G1 Y142.833 X289.162 E16.39 ; skirt
G1 Y182.833 X284.162 E17.58689 ; skirt
G1 Y185.041 X283.486 E17.65545 ; skirt
G1 Y186.889 X282.102 E17.724 ; skirt
G1 Y188.37 X279.623 E17.80974 ; skirt
G1 Y191.37 X270.623 E18.09142 ; skirt
G1 Y191.714 X268.59 E18.15266 ; skirt
G1 Y192.714 X193.59 E20.3797 ; skirt
G1 Y192.714 X185.5 E20.61989 ; skirt
G1 Y192.317 X183.225 E20.68845 ; skirt
G1 Y191.173 X181.22 E20.757 ; skirt
G1 Y189.417 X179.72 E20.82556 ; skirt
G1 Y188.123 X179.13 E20.86778 ; skirt
G1 Y179.123 X176.13 E21.14946 ; skirt
G1 Y177.95 X175.853 E21.18527 ; skirt
G1 Y142.95 X170.853 E22.23501 ; skirt
G1 Y142.0 X170.786 E22.26328 ; skirt
G1 Y122.0 X170.786 E22.8571 ; skirt
G1 Y119.725 X171.183 E22.92566 ; skirt
G1 Y118.442 X171.806 E22.96804 ; skirt
G1 Y110.588 X176.715 E23.24301 ; skirt
G1 Y110.777 X177.018 F3600.0 ; move to first skirt point
G1 Y110.631 X177.109 E23.24814 F2100.0 ; skirt
G1 Y108.966 X178.618 E23.31484 ; skirt
G1 Y107.93 X180.611 E23.38153 ; skirt
G1 Y107.643 X182.5 E23.43828 ; skirt
G1 Y107.643 X277.5 E26.25895 ; skirt
G1 Y108.04 X279.711 E26.32564 ; skirt
G1 Y109.181 X281.646 E26.39234 F2100.0 ; skirt
G1 Y110.631 X282.891 E26.44908 ; skirt
G1 Y118.631 X287.891 E26.72919 ; skirt
G1 Y120.716 X288.726 E26.79588 ; skirt
G1 Y122.0 X288.857 E26.83421 ; skirt
G1 Y142.0 X288.857 E27.42803 ; skirt
G1 Y142.788 X288.808 E27.45149 ; skirt
G1 Y182.788 X283.808 E28.64838 ; skirt
G1 Y184.933 X283.14 E28.71508 ; skirt
G1 Y186.712 X281.768 E28.78177 ; skirt
G1 Y188.031 X279.51 E28.85941 ; skirt
G1 Y191.031 X270.51 E29.14108 ; skirt
G1 Y191.357 X268.585 E29.19907 ; skirt
G1 Y192.357 X193.585 E31.42611 ; skirt
G1 Y192.357 X185.5 E31.66616 ; skirt
G1 Y191.96 X183.289 E31.73285 ; skirt
G1 Y190.819 X181.354 E31.79955 ; skirt
G1 Y189.077 X179.937 E31.86624 ; skirt
G1 Y188.01 X179.469 E31.90081 ; skirt
G1 Y179.01 X176.469 E32.18249 ; skirt
G1 Y177.899 X176.207 E32.21639 ; skirt
G1 Y142.899 X171.207 E33.26613 ; skirt
G1 Y142.0 X171.143 E33.2929 ; skirt
G1 Y122.0 X171.143 E33.88672 ; skirt
G1 Y119.789 X171.54 E33.95342 ; skirt
G1 Y118.631 X172.109 E33.99174 ; skirt
G1 Y110.828 X176.986 E34.26493 ; skirt
G1 E33.26493 F480.0 ; retract
G92 E0 ; reset extrusion distance
G1 Y165.877 X190.914 F3600.0 ; move to first perimeter point
G1 E1.0 F480.0 ; unretract
G1 Y157.914 X190.914 E1.23643 F900.0 ; perimeter
G1 Y157.914 X194.086 E1.3306 ; perimeter
G1 Y176.086 X194.086 E1.87014 ; perimeter
G1 Y176.086 X190.914 E1.96431 F900.0 ; perimeter
G1 Y165.937 X190.914 E2.26564 ; perimeter
G1 Y165.937 X190.557 F3600.0 ; move to first perimeter point
G1 Y157.557 X190.557 E2.51445 F900.0 ; perimeter
G1 Y157.557 X194.443 E2.62983 ; perimeter
G1 Y176.443 X194.443 E3.19057 ; perimeter
G1 Y176.443 X192.943 E3.23511 F900.0 ; perimeter
G1 Y185.443 X192.943 E3.50233 ; perimeter
G1 Y185.443 X192.057 E3.52863 ; perimeter
G1 Y176.443 X192.057 E3.79585 ; perimeter
G1 Y176.443 X190.557 E3.84039 ; perimeter
G1 Y165.997 X190.557 E4.15055 ; perimeter
G1 Y165.997 X190.2 F3600.0 ; move to first perimeter point
G1 Y157.2 X190.2 E4.41174 F450.0 ; perimeter
G1 Y157.2 X194.8 E4.54832 ; perimeter
G1 Y176.8 X194.8 E5.13027 ; perimeter
G1 Y176.8 X193.3 E5.17481 F450.0 ; perimeter
G1 Y185.8 X193.3 E5.44203 ; perimeter
G1 Y185.8 X185.7 E5.66768 ; perimeter
G1 Y185.2 X185.7 E5.6855 ; perimeter
G1 Y185.2 X191.7 E5.86364 ; perimeter
G1 Y176.8 X191.7 E6.11305 ; perimeter
G1 Y176.8 X190.2 E6.15759 ; perimeter
G1 Y166.057 X190.2 E6.47656 ; perimeter
G1 Y165.797 X190.546 F3600.0 ; move inwards before travel
G1 Y158.313 X193.878 F3600.0 ; move to first infill point
G1 Y158.122 X193.687 E6.48478 F900.0 ; infill
G1 Y158.122 X193.17 E6.50044 ; infill
G1 Y158.83 X193.878 E6.53081 ; infill
G1 Y159.346 X193.878 E6.54648 ; infill
G1 Y158.122 X192.654 E6.599 ; infill
G1 Y158.122 X192.138 E6.61466 ; infill
G1 Y159.862 X193.878 E6.68933 ; infill
G1 Y160.378 X193.878 E6.705 ; infill
G1 Y158.122 X191.622 E6.80182 ; infill
G1 Y158.15 X191.134 E6.81666 ; infill
G1 Y160.894 X193.878 E6.93443 ; infill
G1 Y161.41 X193.878 E6.95009 ; infill
G1 Y158.654 X191.122 E7.06838 ; infill
G1 Y159.17 X191.122 E7.08404 ; infill
G1 Y161.926 X193.878 E7.20233 ; infill
G1 Y162.443 X193.878 E7.218 ; infill
G1 Y159.686 X191.122 E7.33628 ; infill
G1 Y160.202 X191.122 E7.35195 ; infill
G1 Y162.959 X193.878 E7.47023 ; infill
G1 Y163.475 X193.878 E7.4859 ; infill
G1 Y160.719 X191.122 E7.60419 ; infill
G1 Y161.235 X191.122 E7.61985 ; infill
G1 Y163.991 X193.878 E7.73814 ; infill
G1 Y164.507 X193.878 E7.7538 ; infill
G1 Y161.751 X191.122 E7.87209 ; infill
G1 Y162.267 X191.122 E7.88775 ; infill
G1 Y165.023 X193.878 E8.00604 ; infill
G1 Y165.539 X193.878 E8.0217 ; infill
G1 Y162.783 X191.122 E8.13999 ; infill
G1 Y163.299 X191.122 E8.15565 ; infill
G1 Y166.055 X193.878 E8.27394 ; infill
G1 Y166.572 X193.878 E8.2896 ; infill
G1 Y163.815 X191.122 E8.40789 ; infill
G1 Y164.332 X191.122 E8.42355 ; infill
G1 Y167.088 X193.878 E8.54184 ; infill
G1 Y167.604 X193.878 E8.5575 ; infill
G1 Y164.848 X191.122 E8.67579 ; infill
G1 Y165.364 X191.122 E8.69146 ; infill
G1 Y168.12 X193.878 E8.80974 ; infill
G1 Y168.636 X193.878 E8.82541 ; infill
G1 Y165.88 X191.122 E8.94369 ; infill
G1 Y166.396 X191.122 E8.95936 ; infill
G1 Y169.152 X193.878 E9.07765 ; infill
G1 Y169.668 X193.878 E9.09331 ; infill
G1 Y166.912 X191.122 E9.2116 ; infill
G1 Y167.428 X191.122 E9.22726 ; infill
G1 Y170.185 X193.878 E9.34555 ; infill
G1 Y170.701 X193.878 E9.36121 ; infill
G1 Y167.945 X191.122 E9.4795 ; infill
G1 Y168.461 X191.122 E9.49516 ; infill
G1 Y171.217 X193.878 E9.61345 ; infill
G1 Y171.733 X193.878 E9.62911 ; infill
G1 Y168.977 X191.122 E9.7474 ; infill
G1 Y169.493 X191.122 E9.76306 ; infill
G1 Y172.249 X193.878 E9.88135 ; infill
G1 Y172.765 X193.878 E9.89701 ; infill
G1 Y170.009 X191.122 E10.0153 ; infill
G1 Y170.525 X191.122 E10.03097 ; infill
G1 Y173.281 X193.878 E10.14925 ; infill
G1 Y173.798 X193.878 E10.16492 ; infill
G1 Y171.041 X191.122 E10.2832 ; infill
G1 Y171.558 X191.122 E10.29887 ; infill
G1 Y174.314 X193.878 E10.41715 ; infill
G1 Y174.83 X193.878 E10.43282 ; infill
G1 Y172.074 X191.122 E10.55111 ; infill
G1 Y172.59 X191.122 E10.56677 ; infill
G1 Y175.346 X193.878 E10.68506 ; infill
G1 Y175.85 X193.866 E10.70036 ; infill
G1 Y173.106 X191.122 E10.81813 ; infill
G1 Y173.622 X191.122 E10.83379 ; infill
G1 Y175.878 X193.378 E10.93062 ; infill
G1 Y175.878 X192.862 E10.94628 ; infill
G1 Y174.138 X191.122 E11.02095 ; infill
G1 Y174.654 X191.122 E11.03661 ; infill
G1 Y175.878 X192.346 E11.08913 ; infill
G1 Y175.878 X191.83 E11.1048 ; infill
G1 Y175.17 X191.122 E11.13516 ; infill
G1 Y175.687 X191.122 E11.15083 ; infill
G1 Y175.878 X191.313 E11.15904 ; infill
G1 Y176.264 X192.5 F3600.0 ; move to first infill point
G1 Y185.264 X192.5 E11.72561 F600.0 ; infill
G1 Y185.5 X191.879 F3600.0 ; move to first infill point
G1 Y185.5 X185.879 E12.10331 F600.0 ; infill
G1 E11.10331 F480.0 ; retract
G92 E0 ; reset extrusion distance
G1 Y168.065 X183.414 F3600.0 ; move to first perimeter point
G1 E1.0 F480.0 ; unretract
G1 Y157.914 X183.414 E1.30138 F900.0 ; perimeter
G1 Y157.914 X186.586 E1.39555 ; perimeter
G1 Y176.086 X186.586 E1.93509 ; perimeter
G1 Y176.086 X183.414 E2.02926 F900.0 ; perimeter
G1 Y168.125 X183.414 E2.26564 ; perimeter
G1 Y168.125 X183.057 F3600.0 ; move to first perimeter point
G1 Y157.557 X183.057 E2.57941 F900.0 ; perimeter
G1 Y157.557 X186.943 E2.69478 ; perimeter
G1 Y176.443 X186.943 E3.25553 ; perimeter
G1 Y176.443 X183.057 E3.3709 F900.0 ; perimeter
G1 Y168.185 X183.057 E3.6161 ; perimeter
G1 Y168.185 X182.7 F3600.0 ; move to first perimeter point
G1 Y157.2 X182.7 E3.94225 F450.0 ; perimeter
G1 Y157.2 X187.3 E4.07883 ; perimeter
G1 Y176.8 X187.3 E4.66078 ; perimeter
G1 Y176.8 X182.7 E4.79736 F450.0 ; perimeter
G1 Y168.245 X182.7 E5.05138 ; perimeter
G1 Y167.985 X183.046 F3600.0 ; move inwards before travel
G1 Y175.878 X183.813 F3600.0 ; move to first infill point
G1 Y175.687 X183.622 E5.0596 F900.0 ; infill
G1 Y175.17 X183.622 E5.07526 ; infill
G1 Y175.878 X184.33 E5.10563 ; infill
G1 Y175.878 X184.846 E5.12129 ; infill
G1 Y174.654 X183.622 E5.17381 ; infill
G1 Y174.138 X183.622 E5.18947 ; infill
G1 Y175.878 X185.362 E5.26415 ; infill
G1 Y175.878 X185.878 E5.27981 ; infill
G1 Y173.622 X183.622 E5.37663 ; infill
G1 Y173.106 X183.622 E5.39229 ; infill
G1 Y175.85 X186.366 E5.51007 ; infill
G1 Y175.346 X186.378 E5.52537 ; infill
G1 Y172.59 X183.622 E5.64366 ; infill
G1 Y172.074 X183.622 E5.65932 ; infill
G1 Y174.83 X186.378 E5.77761 ; infill
G1 Y174.314 X186.378 E5.79327 ; infill
G1 Y171.558 X183.622 E5.91156 ; infill
G1 Y171.041 X183.622 E5.92722 ; infill
G1 Y173.798 X186.378 E6.04551 ; infill
G1 Y173.281 X186.378 E6.06117 ; infill
G1 Y170.525 X183.622 E6.17946 ; infill
G1 Y170.009 X183.622 E6.19512 ; infill
G1 Y172.765 X186.378 E6.31341 ; infill
G1 Y172.249 X186.378 E6.32907 ; infill
G1 Y169.493 X183.622 E6.44736 ; infill
G1 Y168.977 X183.622 E6.46302 ; infill
G1 Y171.733 X186.378 E6.58131 ; infill
G1 Y171.217 X186.378 E6.59698 ; infill
G1 Y168.461 X183.622 E6.71526 ; infill
G1 Y167.945 X183.622 E6.73093 ; infill
G1 Y170.701 X186.378 E6.84921 ; infill
G1 Y170.185 X186.378 E6.86488 ; infill
G1 Y167.428 X183.622 E6.98317 ; infill
G1 Y166.912 X183.622 E6.99883 ; infill
G1 Y169.668 X186.378 E7.11712 ; infill
G1 Y169.152 X186.378 E7.13278 ; infill
G1 Y166.396 X183.622 E7.25107 ; infill
G1 Y165.88 X183.622 E7.26673 ; infill
G1 Y168.636 X186.378 E7.38502 ; infill
G1 Y168.12 X186.378 E7.40068 ; infill
G1 Y165.364 X183.622 E7.51897 ; infill
G1 Y164.848 X183.622 E7.53463 ; infill
G1 Y167.604 X186.378 E7.65292 ; infill
G1 Y167.088 X186.378 E7.66858 ; infill
G1 Y164.332 X183.622 E7.78687 ; infill
G1 Y163.815 X183.622 E7.80253 ; infill
G1 Y166.572 X186.378 E7.92082 ; infill
G1 Y166.055 X186.378 E7.93649 ; infill
G1 Y163.299 X183.622 E8.05477 ; infill
G1 Y162.783 X183.622 E8.07044 ; infill
G1 Y165.539 X186.378 E8.18872 ; infill
G1 Y165.023 X186.378 E8.20439 ; infill
G1 Y162.267 X183.622 E8.32267 ; infill
G1 Y161.751 X183.622 E8.33834 ; infill
G1 Y164.507 X186.378 E8.45663 ; infill
G1 Y163.991 X186.378 E8.47229 ; infill
G1 Y161.235 X183.622 E8.59058 ; infill
G1 Y160.719 X183.622 E8.60624 ; infill
G1 Y163.475 X186.378 E8.72453 ; infill
G1 Y162.959 X186.378 E8.74019 ; infill
G1 Y160.202 X183.622 E8.85848 ; infill
G1 Y159.686 X183.622 E8.87414 ; infill
G1 Y162.443 X186.378 E8.99243 ; infill
G1 Y161.926 X186.378 E9.00809 ; infill
G1 Y159.17 X183.622 E9.12638 ; infill
G1 Y158.654 X183.622 E9.14204 ; infill
G1 Y161.41 X186.378 E9.26033 ; infill
G1 Y160.894 X186.378 E9.27599 ; infill
G1 Y158.15 X183.634 E9.39377 ; infill
G1 Y158.122 X184.122 E9.4086 ; infill
G1 Y160.378 X186.378 E9.50543 ; infill
G1 Y159.862 X186.378 E9.52109 ; infill
G1 Y158.122 X184.638 E9.59576 ; infill
G1 Y158.122 X185.154 E9.61143 ; infill
G1 Y159.346 X186.378 E9.66395 ; infill
G1 Y158.83 X186.378 E9.67961 ; infill
G1 Y158.122 X185.67 E9.70998 ; infill
G1 Y158.122 X186.187 E9.72564 ; infill
G1 Y158.313 X186.378 E9.73386 ; infill
G1 E8.73386 F480.0 ; retract
G92 E0 ; reset extrusion distance
G1 Y165.597 X201.586 F3600.0 ; move to first perimeter point
G1 E1.0 F480.0 ; unretract
G1 Y176.086 X201.586 E1.31141 F900.0 ; perimeter
G1 Y176.086 X198.414 E1.40558 F900.0 ; perimeter
G1 Y157.914 X198.414 E1.94513 ; perimeter
G1 Y157.914 X201.586 E2.0393 ; perimeter
G1 Y165.537 X201.586 E2.26564 ; perimeter
G1 Y165.537 X201.943 F3600.0 ; move to first perimeter point
G1 Y176.443 X201.943 E2.58944 F900.0 ; perimeter
G1 Y176.443 X198.057 E2.70482 F900.0 ; perimeter
G1 Y157.557 X198.057 E3.26556 ; perimeter
G1 Y157.557 X201.943 E3.38094 ; perimeter
G1 Y165.477 X201.943 E3.6161 ; perimeter
G1 Y165.477 X202.3 F3600.0 ; move to first perimeter point
G1 Y176.8 X202.3 E3.95228 F450.0 ; perimeter
G1 Y176.8 X197.7 E4.08886 F450.0 ; perimeter
G1 Y157.2 X197.7 E4.67081 ; perimeter
G1 Y157.2 X202.3 E4.80739 ; perimeter
G1 Y165.417 X202.3 E5.05138 ; perimeter
G1 Y165.677 X201.954 F3600.0 ; move inwards before travel
G1 Y158.313 X201.378 F3600.0 ; move to first infill point
G1 Y158.122 X201.187 E5.0596 F900.0 ; infill
G1 Y158.122 X200.67 E5.07526 ; infill
G1 Y158.83 X201.378 E5.10563 ; infill
G1 Y159.346 X201.378 E5.1213 ; infill
G1 Y158.122 X200.154 E5.17382 ; infill
G1 Y158.122 X199.638 E5.18948 ; infill
G1 Y159.862 X201.378 E5.26415 ; infill
G1 Y160.378 X201.378 E5.27981 ; infill
G1 Y158.122 X199.122 E5.37664 ; infill
G1 Y158.15 X198.634 E5.39148 ; infill
G1 Y160.894 X201.378 E5.50925 ; infill
G1 Y161.41 X201.378 E5.52491 ; infill
G1 Y158.654 X198.622 E5.6432 ; infill
G1 Y159.17 X198.622 E5.65886 ; infill
G1 Y161.926 X201.378 E5.77715 ; infill
G1 Y162.443 X201.378 E5.79281 ; infill
G1 Y159.686 X198.622 E5.9111 ; infill
G1 Y160.202 X198.622 E5.92676 ; infill
G1 Y162.959 X201.378 E6.04505 ; infill
G1 Y163.475 X201.378 E6.06072 ; infill
G1 Y160.719 X198.622 E6.179 ; infill
G1 Y161.235 X198.622 E6.19467 ; infill
G1 Y163.991 X201.378 E6.31295 ; infill
G1 Y164.507 X201.378 E6.32862 ; infill
G1 Y161.751 X198.622 E6.4469 ; infill
G1 Y162.267 X198.622 E6.46257 ; infill
G1 Y165.023 X201.378 E6.58086 ; infill
G1 Y165.539 X201.378 E6.59652 ; infill
G1 Y162.783 X198.622 E6.71481 ; infill
G1 Y163.299 X198.622 E6.73047 ; infill
G1 Y166.055 X201.378 E6.84876 ; infill
G1 Y166.572 X201.378 E6.86442 ; infill
G1 Y163.815 X198.622 E6.98271 ; infill
G1 Y164.332 X198.622 E6.99837 ; infill
G1 Y167.088 X201.378 E7.11666 ; infill
G1 Y167.604 X201.378 E7.13232 ; infill
G1 Y164.848 X198.622 E7.25061 ; infill
G1 Y165.364 X198.622 E7.26627 ; infill
G1 Y168.12 X201.378 E7.38456 ; infill
